X:26
T:Shall I Show You How The Farmer?
%%score 1 { 2 | 3 }
L:1/4
Q:1/4=110
M:3/4
I:linebreak $
K:G
V:1 treble nm="Violin"
V:2 treble nm="Piano"
V:3 bass 
V:1
G/>G/ | d d d/>e/ | d B G/>A/ | B B B/>c/ | B G E/>D/ |$ G G A/>A/ | B d G/>B/ | A c F | 
w: Shall I|show you how the|farm- er, Shall I|show you how the|farm- er, Shall i|show you how the|farm- er Sows his|bar- ley and|
G2 G/>G/ |$ [Gd] [Gd] [Gd]/>e/ | [Gd] [DB] G/>A/ | [DB] [DB] [DB]/>c/ | [DB] [DG] E/>D/ |$ 
w: wheat? It is|so so that the|farm- er, it is|so so that the|farm- er It is|
[B,G] [DG] [FA]/>A/ | [DB] [Gd] [DG]/>B/ | [CA] [Fc] [DF] | [B,G]2 z |] 
w: so so that the|farm- er Sows his|bar- ley and|wheat!|
V:2
G/>G/ | [Gd] [Gd] [Gd]/>e/ | [Gd] [DB] G/>A/ | [DB] [DB] [DB]/>c/ | [DB] [DG] E/>D/ |$ 
[B,G] [DG] [FA]/>A/ | [DB] [Gd] [DG]/>B/ | [CA] [Fc] [DF] | [B,G]2 z |$ [Gd] [Gd] [Gd]/>e/ | 
[Gd] [DB] G/>A/ | [DB] [DB] [DB]/>c/ | [DB] [DG] E/>D/ |$ [B,G] [DG] [FA]/>A/ | 
[DB] [Gd] [DG]/>B/ | [CA] [Fc] [DF] | [B,G]2 z |] 
V:3
z | G,, [D,G,B,] [D,G,B,] | G,, [D,G,B,] [D,G,B,] | G,, [D,G,B,] [D,G,B,] | 
G,, [D,G,B,] [D,F,C] |$ G,, [D,G,B,] [D,A,C] | G,, [D,G,B,] [D,G,B,] | D,, [D,F,C] [D,F,C] | 
[G,,D,G,]2 z |$ G,, [D,G,B,] [D,G,B,] | G,, [D,G,B,] [D,G,B,] | G,, [D,G,B,] [D,G,B,] | 
G,, [D,G,B,] [D,F,C] |$ G,, [D,G,B,] [D,A,C] | G,, [D,G,B,] [D,G,B,] | D,, [D,F,C] [D,F,C] | 
[G,,D,G,]2 z |] 


